assets/icons/24px/outline/circle-triangle-24px.svg

<svg width="24" height="24" viewBox="0 0 24 24" fill="none" xmlns="http://www.w3.org/2000/svg">
<circle cx="12" cy="12" r="9" stroke="white" stroke-width="2"/>
<path d="M15.0132 13.4719L15.8948 13.9437L15.0132 13.4719ZM12 8.80278V9.80278V8.80278ZM10.905 11.4453L11.168 11.0509L9.50385 9.94145L9.24088 10.3359L10.905 11.4453ZM12.832 11.0509L13.095 11.4453L14.7591 10.3359L14.4962 9.94145L12.832 11.0509ZM12.263 13H11.737V15H12.263V13ZM9.24088 10.3359C8.80348 10.992 8.40943 11.5783 8.17748 12.0694C7.94503 12.5616 7.73349 13.2492 8.10517 13.9437L9.86852 13C9.95754 13.1663 9.8328 13.2477 9.98593 12.9235C10.1396 12.5982 10.4299 12.1579 10.905 11.4453L9.24088 10.3359ZM11.737 13C10.8805 13 10.3532 12.9973 9.99729 12.9447C9.64257 12.8923 9.77949 12.8337 9.86852 13L8.10517 13.9437C8.47685 14.6382 9.16635 14.8436 9.70481 14.9232C10.2421 15.0027 10.9485 15 11.737 15V13ZM13.095 11.4453C13.5701 12.1579 13.8604 12.5982 14.0141 12.9235C14.1672 13.2477 14.0425 13.1663 14.1315 13L15.8948 13.9437C16.2665 13.2492 16.055 12.5616 15.8225 12.0694C15.5906 11.5783 15.1965 10.992 14.7591 10.3359L13.095 11.4453ZM12.263 15C13.0515 15 13.7579 15.0027 14.2952 14.9232C14.8336 14.8436 15.5232 14.6382 15.8948 13.9437L14.1315 13C14.2205 12.8337 14.3574 12.8923 14.0027 12.9447C13.6468 12.9973 13.1195 13 12.263 13V15ZM11.168 11.0509C11.5625 10.459 11.7977 10.1109 11.9914 9.8966C12.1719 9.69689 12.1503 9.80278 12 9.80278L12 7.80278C11.3145 7.80278 10.8372 8.19089 10.5076 8.55564C10.1912 8.90576 9.86186 9.40443 9.50385 9.94145L11.168 11.0509ZM14.4962 9.94145C14.1381 9.40443 13.8088 8.90576 13.4924 8.55564C13.1628 8.19089 12.6855 7.80278 12 7.80278V9.80278C11.8497 9.80278 11.8281 9.69689 12.0086 9.8966C12.2023 10.1109 12.4375 10.459 12.832 11.0509L14.4962 9.94145Z" fill="white"/>
</svg>

<svg width="24" height="24" fill="none" xmlns="http://www.w3.org/2000/svg"><circle cx="12" cy="12" r="9" stroke="#fff" stroke-width="2"/><path d="M15.013 13.472l.882.472-.882-.472zM12 8.802v1-1zm-1.095 2.643l.263-.394-1.664-1.11-.263.395 1.664 1.11zm1.927-.394l.263.394 1.664-1.11-.263-.394-1.664 1.11zM12.263 13h-.526v2h.526v-2zm-3.022-2.664c-.438.656-.832 1.242-1.064 1.733-.232.493-.444 1.18-.072 1.875L9.87 13c.089.166-.036.248.117-.076.154-.326.444-.766.919-1.479l-1.664-1.11zM11.737 13c-.857 0-1.384-.003-1.74-.055-.354-.053-.218-.111-.128.055l-1.764.944c.372.694 1.061.9 1.6.98.537.079 1.243.076 2.032.076v-2zm1.358-1.555c.475.713.765 1.153.92 1.479.152.324.027.242.117.076l1.763.944c.372-.695.16-1.382-.072-1.875-.232-.49-.627-1.077-1.064-1.733l-1.664 1.11zM12.263 15c.789 0 1.495.003 2.032-.077.539-.08 1.228-.285 1.6-.98L14.132 13c.088-.166.225-.108-.13-.055-.355.052-.883.055-1.739.055v2zm-1.095-3.95c.395-.591.63-.94.823-1.153.18-.2.16-.094.009-.094v-2c-.685 0-1.163.388-1.492.753-.317.35-.646.848-1.004 1.385l1.664 1.11zm3.328-1.109c-.358-.537-.687-1.035-1.004-1.385-.33-.365-.807-.753-1.492-.753v2c-.15 0-.172-.106.009.094.193.214.428.562.823 1.154l1.664-1.11z" fill="#fff"/></svg>
